X:1
T:Epstein, 87.87.86.86
T:Epstein, 87.87.86.86
T:A. Epstein, 1921
T:Public Domain Courtesy of the Cyber Hymnal™
C:A. Epstein, 1921
Z:Public Domain
Z:Courtesy of the Cyber Hymnal™
%%score ( 1 2 ) ( 3 4 )
L:1/8
Q:1/4=107
M:4/4
K:Ab
V:1 treble 
V:2 treble 
V:3 bass 
V:4 bass 
V:1
 [Ec]2 | [EG]2 [EA]2 =E2 F2 | c3 z c [FB]2 [DF]2 | [DA]2 [DG]2 [DF]2 [DG]2 | [=DF]4 E4 | %5
 [FA]2 [DG][DF] [C=E]2 d2 | c3 [GB] A2 c2 | [Gc]2 [GB]2 B3 z _D | =D4 [B,E]2 E2 | %9
 B3 [FB] [Fc]2 [Fc]2 x | d3 z c [FB]2 [FB]2 | [F_c]3 [Fc] [FB]2 [FA]2 | [EG]6 E2 | %13
 [Ee]3 [Ed] [Ec]2 [EF]2 | d3 z =A [FB]2 [DF]2 | [CE]2 [Ec]2 [DB]3 [DE] x2 | [CA]6 |] %17
V:2
 x2 | x4 =E2 F2 | F2 F2 x5 | x8 | x4 E4 | x6 (DA) | G2 (F A2) (F^F) x | x4 =D2 B,2 x | %8
 B,2 E2 E2 x2 | E2 G x6 | F2 F2 x5 | x8 | x6 E2 | x8 | D2 E2 x5 | x10 | x6 |] %17
V:3
 [A,,E,]2 | [B,,D]2 [C,C]2 [C,B,]2 [D,A,]2 | [F,A,]2 [E,=A,]2 [D,B,]2 [B,,B,]2 x | %3
 [E,B,]2 [E,B,]2 [E,A,]2 [E,B,]2 | [A,,=B,]4 [A,,C]4 | [F,C]2 [B,,B,][B,,B,] [C,G,]2 [F,A,]2 | %6
 C3 [_E,C] [F,C]2 C2 | [B,E]2 B,2 [B,,B,]2 [B,,A,]2 x | [E,A,]4 [E,G,]2 E,2 | %9
 G,3 z G, [C,=A,]2 [C,A,]2 | [B,,B,]2 [C,=A,]2 [D,B,]2 [D,B,]2 x | %11
 [=D,A,]3 [D,A,] [D,B,]2 [D,_C]2 | [E,B,]6 [D,G,]2 | [C,A,]2 [B,,G,]2 [=A,,F,]2 [F,,=A,]2 | %14
 [B,,F,]2 [C,F,]2 [D,F,]2 [B,,A,]2 x | [E,A,]2 [E,A,]2 F,2 z x3 | [A,,A,]6 |] %17
V:4
 x2 | x8 | x9 | x8 | x8 | x8 | =E,2 (=D, x A,=A,) x2 | x2 B,2 x5 | x6 E,2 | E,2 D,2 x5 | x9 | x8 | %12
 x8 | x8 | x9 | x4 E,3 G,2 E, | x6 |] %17

